X: 26865
T: Miners Of Wicklow, The
R: jig
M: 6/8
K: Dmajor
|:G|F2 A AB=c|B^AB G2 =A|BGE EFG|AFD D2 F/G/|
FAA A2 =c|B^AB G3|BB/c/d ecA|dfe d2:|
|:g|fdf f2 d|ec/d/e e2 c|fdf fd/e/f|a^ga ba=g|
fdd fd/e/f|ecc ecA|Bcd e2 A|1 d/e/fe d2:|2 dAF D2||

